packages/foundations/assets/icons/functional/images/navigation/gear_wheel_24.svg

<svg width="24" height="24" viewBox="0 0 24 24" fill="none" xmlns="http://www.w3.org/2000/svg">
<g clip-path="url(#clip0_187_33)">
<path fill-rule="evenodd" clip-rule="evenodd" d="M15.4111 3.39267L15.3154 4.73159L16.6862 5.52852L17.8339 4.76342C18.025 4.6359 18.2164 4.60408 18.4076 4.60408C19.5867 4.60408 21.7869 8.43629 21.7869 9.73654C21.7869 10.0873 21.604 10.4543 21.2449 10.6292L20.0016 11.2349V12.7651L21.2449 13.3708C21.604 13.5457 21.7869 13.9127 21.7869 14.2635C21.7869 15.481 19.6383 19.3959 18.4076 19.3959C18.2164 19.3959 18.025 19.3641 17.8339 19.2366L16.6862 18.4715L15.3154 19.2366L15.4111 20.6073C15.4903 21.7437 13.7689 22.01 12 22.01C10.4066 22.01 8.50553 21.8025 8.58887 20.6073L8.68456 19.2366L7.31371 18.4715L6.16607 19.2366C5.9749 19.3641 5.78352 19.3959 5.59235 19.3959C4.41328 19.3959 2.21307 15.5637 2.21307 14.2635C2.21307 13.9127 2.39598 13.5457 2.75507 13.3708L3.9983 12.7651V11.2349L2.75507 10.6292C2.39598 10.4543 2.21307 10.0873 2.21307 9.73654C2.21307 8.39926 4.42532 4.60408 5.62418 4.60408C5.78352 4.60408 5.9749 4.6359 6.16607 4.76342L7.31371 5.52852L8.68456 4.73159L8.58887 3.39267C8.50919 2.27697 10.1648 2.00871 11.8165 1.99097L12 1.99C13.5942 1.99 15.4964 2.1976 15.4111 3.39267ZM12 3.99832C11.5537 3.99832 11.1074 4.03025 10.6291 4.12584L10.7248 5.24166C10.7575 5.62278 10.5365 5.97992 10.2147 6.1661L7.79195 7.56877C7.6326 7.63263 7.47316 7.69629 7.28188 7.69629C7.09061 7.69629 6.89617 7.63773 6.73999 7.53694L5.75169 6.89936C5.17787 7.56877 4.73156 8.3658 4.41277 9.19465L5.4329 9.70471C5.79015 9.88334 6.00672 10.2466 6.00672 10.5973V13.3708C6.00672 13.7534 5.7774 14.0912 5.4329 14.2635L4.41277 14.7735C4.73156 15.6342 5.17787 16.4312 5.75169 17.1006L6.73999 16.4631C6.89617 16.3623 7.09061 16.3037 7.28188 16.3037C7.47316 16.3037 7.63107 16.3381 7.79195 16.4312L10.2147 17.8339C10.5365 18.0201 10.7575 18.3772 10.7248 18.7583L10.6291 19.8742C11.1074 19.9697 11.5537 20.0017 12 20.0017C12.4463 20.0017 12.8926 19.9697 13.3708 19.8742L13.2751 18.7583C13.2425 18.3772 13.4634 18.0201 13.7852 17.8339L16.208 16.4312C16.3689 16.3381 16.5268 16.3037 16.7181 16.3037C16.9093 16.3037 17.1038 16.3623 17.26 16.4631L18.2483 17.1006C18.8221 16.4312 19.2684 15.6342 19.5872 14.7735L18.567 14.2953C18.2054 14.1257 17.9932 13.7534 17.9932 13.3708V10.6292C17.9932 10.2466 18.2098 9.88334 18.567 9.70471L19.5872 9.19465C19.2684 8.3658 18.8221 7.56877 18.2483 6.89936L17.26 7.53694C17.1038 7.63773 16.9093 7.69629 16.7181 7.69629C16.5268 7.69629 16.3673 7.63263 16.208 7.56877L13.7852 6.1661C13.4634 5.97992 13.2425 5.62278 13.2751 5.24166L13.3708 4.12584C12.8926 4.03025 12.4463 3.99832 12 3.99832ZM11.9848 7.99C14.2163 7.99 16.0015 9.80715 16.0015 12.0068C16.0015 14.2064 14.2163 15.9916 11.9848 15.9916C9.78519 15.9916 7.99997 14.2064 7.99997 12.0068C7.99997 9.80715 9.78519 7.99 11.9848 7.99ZM12 9.99157C10.9161 9.99157 9.99155 10.8842 9.99155 12C9.99155 13.0839 10.9161 14.0084 12 14.0084C13.1158 14.0084 14.0084 13.0839 14.0084 12C14.0084 10.8842 13.1157 9.99198 12 9.99157Z" fill="#1A1C1F"/>
</g>
<defs>
<clipPath id="clip0_187_33">
<rect width="24" height="24" fill="white"/>
</clipPath>
</defs>
</svg>

<svg xmlns="http://www.w3.org/2000/svg" width="24" height="24" fill="none"><g clip-path="url(#a)"><path fill="#1A1C1F" fill-rule="evenodd" d="m15.411 3.393-.096 1.339 1.371.797 1.148-.766a1 1 0 0 1 .574-.159c1.179 0 3.379 3.832 3.379 5.133 0 .35-.183.717-.542.892l-1.243.606v1.53l1.243.606c.359.175.542.542.542.893 0 1.217-2.149 5.132-3.38 5.132a1 1 0 0 1-.573-.16l-1.148-.765-1.37.766.095 1.37c.08 1.137-1.642 1.403-3.411 1.403-1.593 0-3.494-.208-3.411-1.403l.096-1.37-1.371-.765-1.148.765a1 1 0 0 1-.574.159c-1.179 0-3.379-3.832-3.379-5.132 0-.351.183-.718.542-.893l1.243-.606v-1.53l-1.243-.606a.99.99 0 0 1-.542-.892c0-1.338 2.212-5.133 3.411-5.133.16 0 .35.032.542.16l1.148.765 1.37-.797-.095-1.34c-.08-1.115 1.576-1.383 3.227-1.401L12 1.99c1.594 0 3.496.208 3.411 1.403M12 3.998c-.446 0-.893.032-1.37.128l.095 1.116c.033.38-.188.738-.51.924L7.792 7.57c-.16.064-.319.127-.51.127s-.386-.058-.542-.16L5.752 6.9c-.574.67-1.02 1.467-1.34 2.296l1.02.51c.358.178.575.542.575.892v2.774c0 .382-.23.72-.574.893l-1.02.51c.319.86.765 1.657 1.339 2.327l.988-.638c.156-.1.35-.16.542-.16.191 0 .35.035.51.128l2.423 1.403c.322.186.543.543.51.924l-.096 1.116c.478.096.925.128 1.371.128s.893-.032 1.37-.128l-.095-1.116c-.033-.38.188-.738.51-.924l2.423-1.403a.96.96 0 0 1 .51-.127c.191 0 .386.058.542.16l.988.637a7.7 7.7 0 0 0 1.34-2.327l-1.021-.479a1.02 1.02 0 0 1-.574-.924v-2.742c0-.382.217-.746.574-.924l1.02-.51c-.319-.83-.765-1.626-1.339-2.296l-.988.638c-.156.1-.35.16-.542.16-.191 0-.35-.064-.51-.128l-2.423-1.403c-.322-.186-.543-.543-.51-.924l.096-1.116A7 7 0 0 0 12 3.998m-.015 3.992a4.02 4.02 0 0 1 4.017 4.017c0 2.2-1.786 3.985-4.017 3.985A3.986 3.986 0 0 1 8 12.007c0-2.2 1.785-4.017 3.985-4.017M12 9.992A2.02 2.02 0 0 0 9.992 12c0 1.084.924 2.008 2.008 2.008A2.02 2.02 0 0 0 14.008 12 2 2 0 0 0 12 9.992" clip-rule="evenodd"/></g><defs><clipPath id="a"><path fill="#fff" d="M0 0h24v24H0z"/></clipPath></defs></svg>
